!!!COM: Bach, Johann Sebastian
!!!OPR: Joh. Seb. Bachs vierstimmige Choralgesänge
!!!XEN: Four-part Chorales
!!!OTL: Chorale 9. Allein zu dir, Herr Jesu Christ
!!!SCT: BWV 261
!!!SCA: Thematisch-systematisches Verzeichnis der musikalischen Werke Johann Sebastian Bach: Bach-Werke-Verzeichnis (Schmieder)
!!!YOR: Bach Gesellschaft Edition xxxix
!!!ENC: Steven Rasmussen
!!!CDT: 1685/3//-1750/7/28/
!!!OCY: Deutschland
!!!YEC: Copyright (c) 1994, 2000 Center for Computer Assisted Research in the Humanities
!!!YEM: Rights to all derivative editions reserved
!!!YEN: United States of America
**kern	**silbe	**kern	**silbe	**kern	**silbe	**kern	**silbe
*I:[BASSO]	*I:[BASSO]	*I:[TENORE]	*I:[TENORE]	*I:[ALTO]	*I:[ALTO]	*I:[SOPRANO]	*I:[SOPRANO]
*>[A,A,B]	*	*>[A,A,B]	*	*>[A,A,B]	*	*>[A,A,B]	*
*>A	*	*>A	*	*>A	*	*>A	*
*clefF4	*	*clefGv2	*	*clefG2	*	*clefG2	*
*k[f#c#]	*	*k[f#c#]	*	*k[f#c#]	*	*k[f#c#]	*
*b:	*	*b:	*	*b:	*	*b:	*
*M4/4	*	*M4/4	*	*M4/4	*	*M4/4	*
8DL	.	4A	.	8f#L	.	4dd	Al-ich
8EJ	.	.	.	8gJ	.	.	.
=1	=1	=1	=1	=1	=1	=1	=1
4F#	.	4d	.	4a	.	4a	-leinweiss,
4G	.	4d	.	4g	.	8bL	zudass
.	.	.	.	.	.	8cc#J	.
4.F#	.	4d	.	4a	.	8ddL	dir,du
.	.	.	.	.	.	8eeJ	.
.	.	4d	.	8a#L	.	4ff#	Herrmein
8G#	.	.	.	8bJ	.	.	.
=2	=2	=2	=2	=2	=2	=2	=2
4A#	.	4c#	.	4cc#	.	4ee	Je-Trö-
8BL	.	8dL	.	4f#	.	2dd	.
8AnJ	.	8c#J	.	.	.	.	.
4G#	.	4B	.	4e	.	.	.
4A	.	4A	.	4e	.	4cc#	-su-ster
=3	=3	=3	=3	=3	=3	=3	=3
2D;	.	2A;	.	2f#;	.	2dd;	Christ,bist,
4r	.	4r	.	4r	.	4r	.
4d	.	4d	.	4a	.	4ff#	mein'kein
=4	=4	=4	=4	=4	=4	=4	=4
4A	.	4c#	.	8aL	.	4ee	Hoff-Trost
.	.	.	.	8gJ	.	.	.
4B	.	4d	.	4f#	.	4dd	-nungmag
4E	.	8eL	.	4g	.	8cc#L	stehtmir
.	.	8dJ	.	.	.	8bJ	.
[4F#	aufsonst	4c#	.	4f#	.	4a	aufsonst
=5	=5	=5	=5	=5	=5	=5	=5
4F#]	.	4d	.	2.g	.	4b	Er-wer-
8EL	Er-wer-	4e	.	.	.	8cc#L	.
8DJ	.	.	.	.	.	8ddJ	.
8C#L	.	8A#L	.	.	.	[2ee	.
8BB	.	8BJ	.	.	.	.	.
8AA#	.	[4c#	.	8f#L	.	.	.
8C#J	.	.	.	8g#J	.	.	.
=6	=6	=6	=6	=6	=6	=6	=6
4F#	.	4c#]	.	4a#	.	4ee]	.
8GL	.	2B	.	8bL	.	4dd	.
8F#J	.	.	.	8anJ	.	.	.
4E	.	.	.	4g	.	2cc#	.
4F#	.	4A#	.	8f#L	.	.	.
.	.	.	.	8eJ	.	.	.
=7	=7	=7	=7	=7	=7	=7	=7
2BB;	-den,-den.	2B;	.	2d;	.	2b;	-den,-den.
4r	.	4r	.	4r	.	4r	.
=:|!	=:|!	=:|!	=:|!	=:|!	=:|!	=:|!	=:|!
*>B	*	*>B	*	*>B	*	*>B	*
4B	.	4d	.	4b	.	4ff#	Von
=8	=8	=8	=8	=8	=8	=8	=8
4E	.	8dL	.	4b	.	4gg	An-
.	.	8BJ	.	.	.	.	.
4A	.	4c#	.	4a	.	4ee	-be-
4D	.	8c#L	.	4a	.	4ff#	-ginn
.	.	8AJ	.	.	.	.	.
8GL	.	4B	.	4g	.	4dd	ist
8F#J	.	.	.	.	.	.	.
=9	=9	=9	=9	=9	=9	=9	=9
4E	.	4B	.	4g	.	4ee	Nichts
4AA#	.	4c#	.	4f#	.	4ff#	er-
4BB;	.	4d;	.	4f#;	.	4b;	-kor'n,
4d	.	4f#	.	4b	.	4ff#	auf
=10	=10	=10	=10	=10	=10	=10	=10
4d	.	4e	.	4b	.	4gg	Er-
4c#	.	4e	.	4a	.	4ee	-den
4c#	.	4d	.	4a	.	4ff#	ist
8BL	.	8dL	.	8gL	.	4dd	kein
8AJ	.	8c#J	.	8f#J	.	.	.
=11	=11	=11	=11	=11	=11	=11	=11
8GL	.	4B	.	4e	.	4ee	Mensch
8F#J	.	.	.	.	.	.	.
8EL	.	4B	.	4a	.	4ff#	ge-
8D#J	.	.	.	.	.	.	.
2ryy	.	2ryy	.	2ryy	.	2ryy	.
=12	=12	=12	=12	=12	=12	=12	=12
2E;	.	2B;	.	2g;	.	2b;	-bor'n,
4r	.	4r	.	4r	.	4r	.
4BB	.	4B	.	4f#	.	4dd	der
=13	=13	=13	=13	=13	=13	=13	=13
4C#	.	(8B	.	4e#	.	4cc#	mir
.	.	4A)	.	.	.	.	.
8D#L	.	.	.	8f#L	.	4b	aus
8E#J	.	8G#	.	8g#J	.	.	.
4F#	.	4F#	.	4c#	.	4a	Nö-
4D#	.	4F#	.	4f#	.	4b	-then
=14	=14	=14	=14	=14	=14	=14	=14
8EL	.	8GL	.	4f#	.	4g	hel-
8F#J	.	8AJ	.	.	.	.	.
8GL	.	8BL	.	4e	.	4g	-fen
8AJ	.	8c#J	.	.	.	.	.
4B;	.	4d#;	.	4d#;	.	4f#;	kann;
4r	.	4r	.	4r	.	4r	.
=15	=15	=15	=15	=15	=15	=15	=15
4r	.	4r	.	4r	.	4r	.
2G	ich	8BL	ich	2e	ich	4b	ich
.	.	16c#L	.	.	.	.	.
.	.	16dJJ	.	.	.	.	.
.	.	4c#	ruf'	.	.	4a	ruf'
8F#L	ruf'	8dL	.	[4a	ruf	[4dd	.
8GJ	.	8eJ	.	.	.	.	.
=16	=16	=16	=16	=16	=16	=16	=16
4A	.	4f#	.	4a]	.	4dd]	.
4AA	dich	4e	dich	4g	dich	4cc#	dich
4D;	an,	4d;	an,	4f#;	an,	4dd;	an,
4r	.	4r	.	4r	.	4r	.
=17	=17	=17	=17	=17	=17	=17	=17
4r	.	4r	.	4r	.	4r	.
4D	.	4d	.	4f#	.	4a	zu
4d	.	4G#	.	4e	.	4b	dem
4c#	.	4A#	.	4e	.	4cc#	ich
=18	=18	=18	=18	=18	=18	=18	=18
4.B	mein	8BL	mein	4d	.	8ddL	mein
.	.	8c#J	.	.	.	8eeJ	.
.	.	2d	.	8ddL	.	2ff#	.
8A	.	.	.	8cc#J	.	.	.
8GL	.	.	.	8bL	.	.	.
8F#J	.	.	.	8a#J	.	.	.
8GL	Ver-	[4c#	Ver-	8bL	.	4ee	Ver-
8EJ	.	.	.	8cc#J	.	.	.
=19	=19	=19	=19	=19	=19	=19	=19
4F#	-trau-	4c#]	.	4a#	.	4ee	-trau-
8GL	.	2B	-trau-	8bL	.	4dd	.
8F#J	.	.	.	8anJ	.	.	.
4E	.	.	.	4g	.	4cc#	.
4F#	-en	4A#	-en	8f#L	.	4cc#	-en
.	.	.	.	8eJ	.	.	.
=20	=20	=20	=20	=20	=20	=20	=20
2BB;	han.	2B;	han.	2d#;	.	2b;	han.
4r	.	4r	.	4r	.	4r	.
==|!	==|!	==|!	==|!	==|!	==|!	==|!	==|!
*-	*-	*-	*-	*-	*-	*-	*-
!!!RWG: Key is interpreted using the Humdrum key tool.
!!!URL-pdf: https://s9.imslp.org/files/imglnks/usimg/6/6b/IMSLP24489-PMLP09471-CCARH_Bach_Chorales.pdf#page=5 Musedata edition
!!!URL-pdf: https://s9.imslp.org/files/imglnks/usimg/7/7a/IMSLP04155-Bach_-_BGA_253-438.pdf#page=6 	Bach-Gesellschaft Ausgabe, Band 39 (pp.175-276) Leipzig: Breitkopf und Härtel, 1892. Plate B.W. XXXIX.
!!!END: 1994/05/03
!!!EMD: Converted from MuseData to Humdrum Dec 19, 2000, by Andreas Kornstaedt using muse2kern.
!!!EED: Craig Stuart Sapp
!!!EEV: 2024/03/31
!!!filter-keyboard: extract -i kern | satb2gs
!!!title: @{OTL} (@{SCT})
